X: 290
T: A Night At The Fair
R: jig
M: 6/8
K: Gmajor
B2 A GED|EGF G2 A|BGG dGG|ABA AGA|
B/c/BA GED|EGF G2 A|BeB dBA|BGG G2:|
efg eaa|egg ged|BGG dBG|A2 G AB/c/d|
e2 g eaa|e2 g ged|B/d/eB dBA|BGF G2:|

